assets/symbols/mulberry/computer_programme.svg

<svg height="850.394" viewBox="0 0 850.394 850.394" width="850.394" xmlns="http://www.w3.org/2000/svg"><path d="m677.75 252.77h-489.67v-22.69h490.73v22.69z" fill="#a9d7f3"/><path d="m188.08 252.77h490.73v250.11h-490.73z" fill="#fff"/><path d="m678.81 502.88v-272.8h19.53v-32.72h2.01v305.52h-.21z" fill="#a9d7f3"/><path d="m154.31 232.5v270.38h546.04v26.14h-549.69v-298.94h3.65z" fill="#7a7878"/><path d="m188.08 252.77v250.11h-33.77v-272.8h33.77v1.42z" fill="#a9d7f3"/><path d="m600.83 736.12v29.47l-123.45.37h-229.33v-29.48c70.07-10.36 90.25-36.891 90.25-36.891v-84.85h172.3v84.5c0 .001 20.16 26.521 90.23 36.881z" fill="#c8c8c8"/><path d="m700.74 554.75c9.68 0 17.52 7.85 17.52 17.51 0 9.681-7.84 17.53-17.52 17.53-9.681 0-17.521-7.85-17.521-17.53.001-9.66 7.841-17.51 17.521-17.51z" fill="#231f20"/><path d="m698.34 197.36v32.72h-83.91v-30.08h83.37v-2.64z" fill="#fff"/><path d="m684.9 184.35 7.28 10.38h-6.4l-4-6.11-4.03 6.11h-6.1l7.09-10.16-6.78-9.56h6.36l3.46 5.42 3.67-5.42h6.1z" fill="#231f20"/><path d="m685.78 194.73h6.399l-7.279-10.38 6.649-9.34h-6.1l-3.67 5.42-3.46-5.42h-6.36l6.78 9.56-7.09 10.16h6.1l4.03-6.11zm12.02-27.44v32.71h-55.33v-4.22h18.86v-28.49z" fill="#ed1d31"/><path d="m510.6 614.74h-380.9c-23.68 0-42.88-19.19-42.88-42.88v-428.63c0-23.68 19.2-42.88 42.88-42.88h590c23.68 0 42.88 19.2 42.88 42.88v428.63c0 23.689-19.2 42.88-42.88 42.88zm168.12-42.2c0-9.68-7.84-17.51-17.52-17.51-9.69 0-17.521 7.83-17.521 17.51s7.83 17.52 17.521 17.52c9.68 0 17.52-7.84 17.52-17.52zm4.5-.28c0 9.681 7.84 17.53 17.521 17.53 9.68 0 17.52-7.85 17.52-17.53 0-9.66-7.84-17.51-17.52-17.51-9.681 0-17.521 7.85-17.521 17.51zm17.13-69.38v-342.01h-549.69v368.15h549.69z" fill="#c8c8c8"/><path d="m661.2 555.03c9.68 0 17.52 7.83 17.52 17.51s-7.84 17.52-17.52 17.52c-9.69 0-17.521-7.84-17.521-17.52s7.831-17.51 17.521-17.51z" fill="#231f20"/><path d="m642.47 172.56h18.86v23.22h-18.86z" fill="#fff"/><path d="m642.47 172.56v27.44h-489.22v-32.71h508.08v5.27z" fill="#a9d7f3"/><path d="m614.43 228.02v2.06h-40.1v-30.08h40.1v3.53z" fill="#fff"/><path d="m574.33 229.02v1.06h-42.21v-30.08h42.21v2.53zm-42.21-1.05v2.11h-145.63v-30.08h145.63v1.47zm-145.63-.01v2.12h-35.88v-30.08h35.88v1.47zm-35.88-.52v2.64h-36.94v-30.08h36.94v1.94zm-36.94 1.64v1h-72.82v-30.08h72.82v1.58zm-72.82-1.06v2.06h-36.94v-30.08h36.94v1.53zm-90.19 2.06v-30.08h53.25v30.08h-49.6zm549.69-69.21v36.49h-2.55v-30.07h-544.55v32.71h-2.59v-39.13z" fill="#fff"/><g fill="none"><g stroke="#231f20"><path d="m338.3 614.74h-208.6c-23.68 0-42.88-19.19-42.88-42.88v-428.63c0-23.68 19.2-42.88 42.88-42.88h590c23.68 0 42.88 19.2 42.88 42.88v428.63c0 23.689-19.2 42.88-42.88 42.88z" stroke-width="21"/><path d="m700.35 502.88v26.14h-549.69v-368.15h549.69v36.49z" stroke-width="7"/><path d="m510.6 614.46v84.78s20.16 26.52 90.23 36.88v29.47l-123.45.37h-229.33v-29.48c70.07-10.36 90.25-36.891 90.25-36.891v-84.77" stroke-width="21"/><path d="m697.8 197.36v2.64h-544.55v-32.71h544.55z" stroke-width="7"/><path d="m698.34 197.36v32.72h-549.83v-32.72m5.8 305.52v-270.38m33.77-1v271.38m-33.77 0h545.83" stroke-width="7"/><path d="m678.81 232.72v268.16" stroke-width="6.332"/><path d="m203.91 203.17v26.49m36.94-28.13v26.49m291.27-26.55v26.5m42.21-25.44v26.49m40.1-25.49v24.49m-300.76-26.44v27.5m36.94-27.14v25.5m35.88-25.97v26.49m-195.52 24.81h486.78" stroke-width="7"/><path d="m519.5 382.11-43.78-45.76m29.11 1.83-29.45-2.07.8 29.53" stroke-width="12.664"/><path d="m642.47 172.56h18.86v23.22h-18.86z" stroke-width="7"/><path d="m614.43 188.39h20.06" stroke-width="12.664"/></g><path d="m0 0h850.394v850.394h-850.394z"/></g></svg>

<svg xmlns="http://www.w3.org/2000/svg" width="850.394" height="850.394" viewBox="0 0 850.394 850.394" overflow="visible"><path fill="#a9d7f3" d="M677.75 252.77H188.08V230.08H678.81v22.69z"/><path fill="#fff" d="M188.08 252.77H678.81v250.11H188.08z"/><path fill="#a9d7f3" d="M678.81 502.88v-272.8h19.53v-32.72h2.01v305.52h-.21z"/><path fill="#7a7878" d="M154.31 232.5v270.38H700.35v26.14H150.66V230.08h3.65z"/><path fill="#a9d7f3" d="M188.08 252.77v250.11h-33.77v-272.8h33.77v1.42z"/><path d="M600.83 736.12v29.47l-123.45.37H248.05v-29.48c70.07-10.36 90.25-36.891 90.25-36.891v-84.85h172.3v84.5c0 .001 20.16 26.521 90.23 36.881z" fill="#c8c8c8"/><path d="M700.74 554.75c9.68 0 17.52 7.85 17.52 17.51 0 9.681-7.84 17.53-17.52 17.53-9.681 0-17.521-7.85-17.521-17.53.001-9.66 7.841-17.51 17.521-17.51z" fill="#231f20"/><path fill="#fff" d="M698.34 197.36v32.72h-83.91V200h83.37v-2.64z"/><path fill="#231f20" d="M684.9 184.35l7.28 10.38h-6.4l-4-6.11-4.03 6.11h-6.1l7.09-10.16-6.78-9.56h6.36l3.46 5.42 3.67-5.42h6.1z"/><path d="M685.78 194.73h6.399l-7.279-10.38 6.649-9.34h-6.1l-3.67 5.42-3.46-5.42h-6.36l6.78 9.56-7.09 10.16h6.1l4.03-6.11 4.001 6.11zm12.02-27.44V200h-55.33v-4.22h18.86v-28.49h36.47z" fill="#ed1d31"/><path d="M510.6 614.74H129.7c-23.68 0-42.88-19.19-42.88-42.88V143.23c0-23.68 19.2-42.88 42.88-42.88h590c23.68 0 42.88 19.2 42.88 42.88v428.63c0 23.689-19.2 42.88-42.88 42.88H510.6zm168.12-42.2c0-9.68-7.84-17.51-17.52-17.51-9.69 0-17.521 7.83-17.521 17.51s7.83 17.52 17.521 17.52c9.68 0 17.52-7.84 17.52-17.52zm4.5-.28c0 9.681 7.84 17.53 17.521 17.53 9.68 0 17.52-7.85 17.52-17.53 0-9.66-7.84-17.51-17.52-17.51-9.681 0-17.521 7.85-17.521 17.51zm17.13-69.38V160.87H150.66v368.15h549.69v-26.14z" fill="#c8c8c8"/><path d="M661.2 555.03c9.68 0 17.52 7.83 17.52 17.51s-7.84 17.52-17.52 17.52c-9.69 0-17.521-7.84-17.521-17.52s7.831-17.51 17.521-17.51z" fill="#231f20"/><path fill="#fff" d="M642.47 172.56h18.86v23.22h-18.86z"/><path fill="#a9d7f3" d="M642.47 172.56V200H153.25v-32.71h508.08v5.27z"/><path fill="#fff" d="M614.43 228.02v2.06h-40.1V200h40.1v3.53z"/><path fill="#fff" d="M574.33 229.02v1.06h-42.21V200h42.21v2.53zM532.12 227.97v2.11H386.49V200h145.63v1.47zM386.49 227.96v2.12h-35.88V200h35.88v1.47zM350.61 227.44v2.64h-36.94V200h36.94v1.94zM313.67 229.08v1h-72.82V200h72.82v1.58zM240.85 228.02v2.06h-36.94V200h36.94v1.53zM150.66 230.08V200h53.25v30.08h-49.6zM700.35 160.87v36.49h-2.55v-30.07H153.25V200h-2.59v-39.13z"/><g fill="none" stroke="#231f20"><path d="M338.3 614.74H129.7c-23.68 0-42.88-19.19-42.88-42.88V143.23c0-23.68 19.2-42.88 42.88-42.88h590c23.68 0 42.88 19.2 42.88 42.88v428.63c0 23.689-19.2 42.88-42.88 42.88H338.3z" stroke-width="21"/><path stroke-width="7" d="M700.35 502.88v26.14H150.66V160.87h549.69v36.49z"/><path d="M510.6 614.46v84.78s20.16 26.52 90.23 36.88v29.47l-123.45.37H248.05v-29.48c70.07-10.36 90.25-36.891 90.25-36.891v-84.77" stroke-width="21"/><path stroke-width="7" d="M697.8 197.36V200H153.25v-32.71H697.8z"/><path stroke-width="7" d="M698.34 197.36v32.72H148.51v-32.72M154.31 502.88V232.5M188.08 231.5v271.38M154.31 502.88h545.83"/><path stroke-width="6.332" d="M678.81 232.72v268.16"/><path stroke-width="7" d="M203.91 203.17v26.49M240.85 201.53v26.49M532.12 201.47v26.5M574.33 202.53v26.49M614.43 203.53v24.49M313.67 201.58v27.5M350.61 201.94v25.5M386.49 201.47v26.49M190.97 252.77h486.78"/><path stroke-width="12.664" d="M519.5 382.11l-43.78-45.76M504.83 338.18l-29.45-2.07.8 29.53"/><path stroke-width="7" d="M642.47 172.56h18.86v23.22h-18.86z"/><path stroke-width="12.664" d="M614.43 188.39h20.06"/></g><path fill="none" d="M0 0h850.394v850.394H0z"/></svg>
